X:3316
T:Congress
S:Trad, arr. Paddy O'Brien 
R:reel
E:9
I:speed 350
M:C|
K:G
Bd|eAAG ~A2Bd|eaaf gedg|eAcA eAcA|BG~G2 BABd|\
eAAG ~A2Bd|eaaf gedB|cBcd (3efg ed|cABG A2:|\
Bd|eaag ~a2 ag|eaag eg~d2|(3efg dg egdg|eaaf ge~d2|\
eaag ~a2 ag|eaag (3efg dB|cBcd (3efg ed|cABG A2:|**


